X: 43
T: Ingonish Jig
R: jig
Z: 2000 John Chambers <jc:trillian.mit.edu>
B: Pinewoods Scottish Music Collection [Alternates] (1986)
M: 6/8
L: 1/8
K: Edor
   A \
| "Em"B2e efg | "D"fef dBA | "Em"B2e efg | "D"afe d2A \
| "Em"B2e efg | "D"fef dBA | "G"Bcd "D"AFD | "Em"EFE E2 :|
|: e \
| "Em"BEE BEB | "D"AFD DFA | "Em"BEE BdB | "D"ADF Adc \
| "Em"BEE BdB | "D"AFD DFA | "G"Bcd "D"AFD | "Em"EFE E2 :|

%%sep 1 1 500

